dist/img/svg/plant.svg

<svg width="53" height="80" viewBox="0 0 53 80" fill="none" xmlns="http://www.w3.org/2000/svg">
<path d="M51.7479 18.9321L48.8224 16.0067C50.5339 13.4187 50.2511 9.89028 47.974 7.61314L42.3138 1.95431C41.0545 0.695014 39.379 0 37.5968 0C35.8159 0 34.1404 0.695014 32.8811 1.95431C31.6218 3.21361 30.9281 4.88778 30.9281 6.67C30.9281 7.99867 31.3163 9.26597 32.034 10.3478L25.336 17.0472C24.9785 17.4047 24.8544 17.933 25.0132 18.4119L26.4219 22.638L25.4947 22.8234C25.1452 21.9056 24.609 21.0652 23.9059 20.3622C22.5853 19.0415 20.8284 18.3132 18.9608 18.3132C17.5081 18.3132 16.1247 18.7534 14.9588 19.5698C13.7929 18.7534 12.4095 18.3132 10.9568 18.3132C9.0892 18.3132 7.33232 19.0415 6.01166 20.3622C3.2863 23.0889 3.2863 27.5258 6.01166 30.2525L13.6261 37.8643V46.2431C10.9688 42.4626 6.58261 39.98 1.62013 39.98C0.883765 39.98 0.286133 40.5763 0.286133 41.314C0.286133 46.2765 2.76871 50.6627 6.54926 53.32H1.62013C0.883765 53.32 0.286133 53.9163 0.286133 54.654V59.99C0.286133 60.7277 0.883765 61.324 1.62013 61.324H3.13156L5.63547 78.8554C5.73019 79.5117 6.2918 80 6.95613 80H22.9641C23.6285 80 24.1901 79.5117 24.2848 78.8554L26.7887 61.324H28.3001C29.0365 61.324 29.6341 60.7277 29.6341 59.99V54.654C29.6341 53.9163 29.0365 53.32 28.3001 53.32H23.371C27.1516 50.6627 29.6341 46.2765 29.6341 41.314C29.6341 40.5763 29.0365 39.98 28.3001 39.98C23.3377 39.98 18.9515 42.4626 16.2941 46.2431V37.8643L23.5164 30.642H33.2733L36.6563 34.0237C36.9164 34.2838 37.2579 34.4145 37.5994 34.4145C37.941 34.4145 38.2825 34.2838 38.5426 34.0237L51.7479 20.8184C52.2694 20.2968 52.2694 19.4524 51.7479 18.9321ZM33.5975 6.66867C33.5975 5.5988 34.0137 4.5943 34.7687 3.83925C36.2815 2.32783 38.9161 2.32783 40.4289 3.83925L46.089 9.49808C47.3163 10.7267 47.5631 12.5543 46.8587 14.0404L42.3151 9.49808C42.1684 9.35267 41.9896 9.24195 41.7935 9.17659L36.1334 7.29031C35.6545 7.12756 35.1249 7.25563 34.7687 7.61181L33.9977 8.38286C33.7442 7.85326 33.5975 7.2743 33.5975 6.66867ZM36.072 10.0824L40.6516 11.6085L45.1459 16.1027L33.8256 27.423L29.3313 22.9301L27.8052 18.3505L36.072 10.0824ZM3.03684 42.732C8.52759 43.379 12.8938 47.7479 13.5421 53.2373C8.05268 52.589 3.68517 48.2214 3.03684 42.732ZM26.9661 55.988V58.656H22.9641C22.2274 58.656 21.6301 59.2532 21.6301 59.99C21.6301 60.7267 22.2274 61.324 22.9641 61.324H24.094L21.8076 77.332H8.11271L5.82623 61.324H12.2921C13.0289 61.324 13.6261 60.7267 13.6261 59.99C13.6261 59.2532 13.0289 58.656 12.2921 58.656H2.95413V55.988H26.9661ZM26.8821 42.732C26.2338 48.2214 21.8676 52.5903 16.3768 53.2373C17.0252 47.7465 21.3927 43.379 26.8821 42.732ZM14.9601 35.4257L7.89927 28.3648C6.2131 26.6773 6.2131 23.9346 7.89927 22.2471C9.53476 20.613 12.3815 20.613 14.017 22.2471C14.5172 22.7474 15.403 22.7474 15.9033 22.2471C17.5388 20.613 20.3855 20.613 22.021 22.2471C22.3478 22.574 22.6106 22.9515 22.8161 23.3583L18.4712 24.2268C18.2138 24.2788 17.9763 24.4055 17.7895 24.591L14.0157 28.3635C13.6341 28.745 13.5194 29.3187 13.7262 29.8176C13.9343 30.3165 14.4212 30.642 14.9601 30.642H19.7439L14.9601 35.4257ZM18.1817 27.974L19.3917 26.764L27.7278 25.0965L30.6053 27.974H18.1817ZM37.5994 31.1943L35.7118 29.308L47.0308 17.989L48.9171 19.8753L37.5994 31.1943Z" fill="#439539"/>
</svg>

<svg width="53" height="80" fill="none" xmlns="http://www.w3.org/2000/svg"><path d="M51.748 18.932l-2.926-2.925c1.712-2.588 1.43-6.117-.848-8.394l-5.66-5.659A6.629 6.629 0 0037.597 0a6.629 6.629 0 00-4.716 1.954 6.624 6.624 0 00-1.953 4.716c0 1.329.388 2.596 1.106 3.678l-6.698 6.7a1.335 1.335 0 00-.323 1.364l1.409 4.226-.927.185a6.994 6.994 0 00-1.59-2.46 6.95 6.95 0 00-4.944-2.05 6.94 6.94 0 00-4.002 1.257 6.944 6.944 0 00-4.002-1.257 6.95 6.95 0 00-4.945 2.05c-2.726 2.726-2.726 7.163 0 9.89l7.614 7.611v8.38C10.97 42.462 6.583 39.98 1.62 39.98c-.736 0-1.334.596-1.334 1.334 0 4.962 2.483 9.349 6.263 12.006H1.62c-.736 0-1.334.596-1.334 1.334v5.336c0 .738.598 1.334 1.334 1.334h1.512l2.503 17.531A1.334 1.334 0 006.956 80h16.008c.665 0 1.226-.488 1.32-1.145l2.505-17.531H28.3c.736 0 1.334-.596 1.334-1.334v-5.336c0-.738-.598-1.334-1.334-1.334h-4.929c3.78-2.657 6.263-7.044 6.263-12.006 0-.738-.598-1.334-1.334-1.334-4.962 0-9.349 2.483-12.006 6.263v-8.379l7.222-7.222h9.757l3.383 3.382a1.33 1.33 0 001.887 0l13.205-13.206a1.333 1.333 0 000-1.886zM33.598 6.67c0-1.07.416-2.075 1.17-2.83 1.514-1.511 4.148-1.511 5.66 0L46.09 9.5c1.227 1.228 1.474 3.055.77 4.541l-4.544-4.542a1.348 1.348 0 00-.521-.321l-5.66-1.887a1.329 1.329 0 00-1.365.322l-.771.77a3.96 3.96 0 01-.4-1.713zm2.474 3.413l4.58 1.526 4.494 4.495-11.32 11.32-4.495-4.493-1.526-4.58 8.267-8.268zM3.037 42.732c5.49.647 9.857 5.016 10.505 10.505-5.49-.648-9.857-5.016-10.505-10.505zm23.93 13.256v2.668h-4.003a1.334 1.334 0 100 2.668h1.13l-2.286 16.008H8.113L5.826 61.324h6.466a1.334 1.334 0 100-2.668H2.954v-2.668h24.012zm-.085-13.256c-.648 5.49-5.014 9.858-10.505 10.505.648-5.49 5.016-9.858 10.505-10.505zM14.96 35.426L7.9 28.365a4.332 4.332 0 010-6.118c1.635-1.634 4.482-1.634 6.117 0 .5.5 1.386.5 1.886 0 1.636-1.634 4.482-1.634 6.118 0 .327.327.59.704.795 1.111l-4.345.869a1.347 1.347 0 00-.681.364l-3.774 3.772a1.334 1.334 0 00.944 2.279h4.784l-4.784 4.784zm3.222-7.452l1.21-1.21 8.336-1.668 2.877 2.878H18.182zm19.417 3.22l-1.887-1.886L47.03 17.989l1.886 1.886L37.6 31.195z" fill="#439539"/></svg>
